X:1
T:Title
%%score 1 2 3
L:1/8
M:3/2
K:C
V:1 treble nm="Part_1"
V:2 treble-8 nm="Part_2"
V:3 treble-8 nm="Part_3"
V:1
 G6 F2 D4 | F2 A4 G4 ^F2 | G4 z4 z4 | G4 A2 c4 B2 | G6 ^F2 F2 E2 | G4 z4 G4 | G4 A6 G2 | %7
 F4 A2 B2 c2 B2 | A2 G4 F2 E2 D2 | F4 z4 F4 | A6 B2 c4 | d2 e3 c c4 B2 | c4 z4 A4 | B2 c2 d6 c2 | %14
 B2 A2 A4 G2 F2 | A6 B2 c4 | G2 A2 B2 G4 ^F2 | G4 z4 G4 | G4 A4 G4 | F4 F4 E2 F2 | G6 F2 E2 D2 | %21
 F4 z4 C4 | D4 F6 E2 | F4 G4 G2 F2 | A2 B2 c6 B2 | A4 G4 F4 | G2 A6 G2 EF | G12 |] %28
V:2
 d8 G4 | c4 d2 e2 c2 B2 | d8 d4 | e6 g4 e2 | d4 c6 B2 | d8 ^c4 | ^c4 d8 | D4 z4 z4 | %8
 D2 G2 c2 c2 B2 B2 | c8 c4 | F4 A2 G2 g4 | f2 g4 c2 f4 | g8 f4 | g8 d4 | f4 e4 d4 | e8 e4 | B8 A4 | %17
 B8 G4 | ^c4 d4 d4 | G4 D4 ^c4 | d6 c2 B4 | c8 F4 | _B2 ^c2 d4 A4 | c3 B d4 z2 D2- | %24
 D2 G2 A2 F2 z2 G2 | F4 E4 D4 | G2 F4 G2 D4 | d12 |] %28
V:3
 G8 B4 | A4 B2 c2 A4 | G12 | c8 c4 | B4 A8 | G8 E4 | E4 D8 | d8 c4 | d2 B2 A4 G4 | F8 A4- | %10
 A4 c2 d2 e4 | d2 c2 e2 f2 d4 | c8 d4 | G8 B4 | d4 c2 A2 B4 | A8 A4 | B4 G2 B2 A4 | G8 G4 | %18
 E4 D4 G4 | B2 c2 d4 A4 | G4 _B2 A2 G4 | F8 A4 | G4 D8 | A4 G4 c2 d2- | d2 d2 c4 e2 d2 | A4 c4 d4 | %26
 B2 c4 B2 A4 | G12 |] %28

